X:1
T: The Astonished Archaeologist
N:
C:Daniel Lanier
S:Tune is: Goff Hall
A:
O:
R:
M:4/4
K:G
I:speed 220
%W: A1
% voice 1 (1 lines, 35 notes)
K:G
M:4/4
L:1/16
A4 |B6 c2 d2 c2 B4 |G6 B2 A4 G4 |e6 f2 d6 e2 |c4 A4 d4 c4 |B6 c2 d2 c2 B4 |G6 B2 A4 G4 |C2 E2 G2 B2 A4 F4 |G12 A4 |
%W: A2
% voice 1 (1 lines, 34 notes)
B6 c2 d2 c2 B4 |G6 B2 A4 G4 |e6 f2 d6 e2 |c4 A4 d4 c4 |B6 c2 d2 c2 B4 |G6 B2 A4 G4 |C2 E2 G2 B2 A4 F4 |G12 d4 |
%W: B1
% voice 1 (1 lines, 35 notes)
g6 a2 f6 g2 |e4 c4 A4 G4 |D6 F2 A2 B2 c4 |B4 G4 G2 B2 d2 f2 |g6 a2 f6 g2 |e4 c4 A4 G4 |C2 E2 G2 B2 A4 F4 |G12 d4 |
%W: B2
% voice 1 (1 lines, 34 notes)
g6 a2 f6 g2 |e4 c4 A4 G4 |D6 F2 A2 B2 c4 |B4 G4 G2 B2 d2 f2 |g6 a2 f6 g2 |e4 c4 A4 G4 |C2 E2 G2 B2 A4 F4 |G12 ||
